X:74
T: Hui gege
N: C0096
O: China,Shanxi, Zuoquan
S: I, 331, 2)]
N: ]
R: Xiaodiao, Kaihua diao. Biaoda aiqing]
M: 3/8
L: 1/8
K: G
dde | dcB | dAd | FED |
G2d | GFE | GDE | D3 |
G2d | GFE | GDE | D3

@@@ Tune index: 6075
